packages/foundations/assets/icons/functional/images/transportation/bus_inverted.svg

<svg xmlns="http://www.w3.org/2000/svg" width="32" height="32" fill="none"><path fill="#1A1C1F" fill-rule="evenodd" d="M8.587 3.131c-1.598.188-2.829 1.228-3.254 2.745-.201.72-.22 1.692-.201 10.471.016 7.844.023 8.393.112 8.693.111.374.296.707.549.986l.18.2v.805c0 .968.059 1.283.285 1.541.277.316.373.335 1.742.335s1.465-.019 1.742-.335c.21-.239.285-.571.285-1.268v-.531h11.946v.531c0 .697.075 1.029.285 1.268.277.316.373.335 1.742.335s1.465-.019 1.742-.335c.226-.258.285-.573.285-1.541v-.805l.18-.2c.253-.279.438-.612.549-.986.089-.3.096-.849.112-8.693.019-8.779 0-9.751-.201-10.471-.31-1.107-1.022-1.946-2.049-2.411-.802-.364-.234-.34-8.431-.349-4.078-.004-7.498.003-7.6.015m12.989 1.194a.833.833 0 0 1-.193 1.342c-.171.088-.516.093-5.446.08-5.256-.014-5.263-.014-5.413-.126a.846.846 0 0 1 .035-1.395l.179-.121 5.323.014 5.324.014zm3.544 9.142c0 3.036-.018 5.52-.04 5.52s-.461.059-.974.131c-5.26.74-11.25.73-16.416-.027a20 20 0 0 0-.76-.104c-.031 0-.05-2.089-.05-5.52v-5.52h18.24zM2.559 9.24a1.4 1.4 0 0 0-.287.27c-.107.144-.113.224-.128 1.798-.01 1.051.004 1.723.041 1.858.068.254.345.514.629.591a.85.85 0 0 0 .733-.167c.279-.219.293-.322.293-2.162 0-1.892-.01-1.948-.368-2.187-.249-.166-.669-.167-.913-.001m25.969.001c-.358.239-.368.295-.368 2.191 0 1.458.012 1.724.087 1.881.245.518.913.626 1.34.218a.95.95 0 0 0 .227-.355c.072-.262.068-3.172-.006-3.443-.107-.392-.408-.613-.837-.613a.74.74 0 0 0-.443.121M8.987 21.834c.941.446 1.136 1.724.371 2.429-.311.287-.568.39-.985.396-.857.012-1.492-.62-1.492-1.486 0-.622.306-1.108.852-1.355.349-.158.902-.151 1.254.016m15.28-.016c.546.247.852.733.852 1.355 0 .866-.635 1.498-1.492 1.486-.417-.006-.674-.109-.985-.396-.765-.705-.57-1.983.371-2.429.352-.167.905-.174 1.254-.016"/></svg>

<svg width="32" height="32" viewBox="0 0 32 32" fill="none" xmlns="http://www.w3.org/2000/svg"><path d="M8.587 3.131 C 6.989 3.319,5.758 4.359,5.333 5.876 C 5.132 6.596,5.113 7.568,5.132 16.347 C 5.148 24.191,5.155 24.740,5.244 25.040 C 5.355 25.414,5.540 25.747,5.793 26.026 L 5.973 26.226 5.973 27.031 C 5.973 27.999,6.032 28.314,6.258 28.572 C 6.535 28.888,6.631 28.907,8.000 28.907 C 9.369 28.907,9.465 28.888,9.742 28.572 C 9.952 28.333,10.027 28.001,10.027 27.304 L 10.027 26.773 16.000 26.773 L 21.973 26.773 21.973 27.304 C 21.973 28.001,22.048 28.333,22.258 28.572 C 22.535 28.888,22.631 28.907,24.000 28.907 C 25.369 28.907,25.465 28.888,25.742 28.572 C 25.968 28.314,26.027 27.999,26.027 27.031 L 26.027 26.226 26.207 26.026 C 26.460 25.747,26.645 25.414,26.756 25.040 C 26.845 24.740,26.852 24.191,26.868 16.347 C 26.887 7.568,26.868 6.596,26.667 5.876 C 26.357 4.769,25.645 3.930,24.618 3.465 C 23.816 3.101,24.384 3.125,16.187 3.116 C 12.109 3.112,8.689 3.119,8.587 3.131 M21.576 4.325 C 21.987 4.735,21.890 5.407,21.383 5.667 C 21.212 5.755,20.867 5.760,15.937 5.747 C 10.681 5.733,10.674 5.733,10.524 5.621 C 10.043 5.262,10.060 4.562,10.559 4.226 L 10.738 4.105 16.061 4.119 L 21.385 4.133 21.576 4.325 M25.120 13.467 C 25.120 16.503,25.102 18.987,25.080 18.987 C 25.057 18.987,24.619 19.046,24.106 19.118 C 18.846 19.858,12.856 19.848,7.690 19.091 C 7.300 19.033,6.958 18.987,6.930 18.987 C 6.899 18.987,6.880 16.898,6.880 13.467 L 6.880 7.947 16.000 7.947 L 25.120 7.947 25.120 13.467 M2.559 9.240 C 2.462 9.306,2.333 9.428,2.272 9.510 C 2.165 9.654,2.159 9.734,2.144 11.308 C 2.134 12.359,2.148 13.031,2.185 13.166 C 2.253 13.420,2.530 13.680,2.814 13.757 C 3.056 13.822,3.333 13.759,3.547 13.590 C 3.826 13.371,3.840 13.268,3.840 11.428 C 3.840 9.536,3.830 9.480,3.472 9.241 C 3.223 9.075,2.803 9.074,2.559 9.240 M28.528 9.241 C 28.170 9.480,28.160 9.536,28.160 11.432 C 28.160 12.890,28.172 13.156,28.247 13.313 C 28.492 13.831,29.160 13.939,29.587 13.531 C 29.683 13.439,29.785 13.280,29.814 13.176 C 29.886 12.914,29.882 10.004,29.808 9.733 C 29.701 9.341,29.400 9.120,28.971 9.120 C 28.788 9.120,28.655 9.156,28.528 9.241 M8.987 21.834 C 9.928 22.280,10.123 23.558,9.358 24.263 C 9.047 24.550,8.790 24.653,8.373 24.659 C 7.516 24.671,6.881 24.039,6.881 23.173 C 6.881 22.551,7.187 22.065,7.733 21.818 C 8.082 21.660,8.635 21.667,8.987 21.834 M24.267 21.818 C 24.813 22.065,25.119 22.551,25.119 23.173 C 25.119 24.039,24.484 24.671,23.627 24.659 C 23.210 24.653,22.953 24.550,22.642 24.263 C 21.877 23.558,22.072 22.280,23.013 21.834 C 23.365 21.667,23.918 21.660,24.267 21.818 " fill="#1A1C1F" stroke="none" fill-rule="evenodd"></path></svg>
